X:1
T:Mein Zuversicht hab ich
T:Sixtus Dietrich
T:Source : DDT 34---Leipzig---Breitkopf & Härtel---J.Wolf---1908. First print : Newe Deudsche Geistliche Gesenge---Wittemberg---G.Rhau---1544. Editor : André Vierendeels (22/07/17).
T:Notes : Original clefs : C1, C4, C4, F4 Original note values have been halved Editorial accidentals above the staff
T:Mein Zuversicht hab ich
T:©
T:©
C:Sixtus Dietrich
Z:©
%%score [ 1 [ 2 3 ] 4 ]
L:1/8
Q:1/4=120
M:2/2
K:C
V:1 treble nm="Soprano" snm="S"
V:2 treble-8 nm="Tenor 1" snm="T 1"
V:3 treble-8 nm="Tenor 2" snm="T 2"
V:4 bass nm="Bass" snm="B"
V:1
 G8 | G6 F2 | G4 A4 | E4 F4 | G8 | z8 | z8 | G4 A4 | B4 c3 B | A4 G4 | F2 A4 GF | E2 A2 G3 F | %12
w: Mein|Zu- ver-|sicht hab|ich ge-|richt't,|||al- lein|in Gott _|_ _|der in _ _|_ der Not _|
 E2 D2 C2 c2 | BAGF E4 | z4 D4 | E4 F4 | G6 F2 | E2 C2 D4 | C4 z2 D2 | EFGA Bc d2 | G2 c4 B2 | %21
w: _ mich nie ver-|liesz. _ _ _ _|Sein|trost ist|süsz, giebt|mir _ grosz|Stärk, giebt|mir _ _ _ _ _ _|_ grosz _|
 c8- | c4 z4 | z4 z2 G2 | A2 B2 c4 | B2 G3 F F2 | G8- | G8 |] %28
w: Stärk,|_|wi-|der Fleisch, Wel-|te, Teu- * fels|Werk.|_|
V:2
 G4 c4- | c2 B2 A4 | G4 c4- | c2 B2 A4 | G4 C2 c2- | c2 d2 e2 f2 | d4 c3 d | ef g2 fedc | %8
w: Mein zu-|* ver- sicht|hab ich|_ _ ge-|richt't, al- lein|_ _ _ _|in Gott, _|_ _ _ _ _ _ _|
 B2 g4 e2 | f4 e4 | c4 z2 d2 | e2 f2 g4- | g2 f2 e2 dc | d2 d2 c4 | z4 z2 A2 | B2 c2 d4- | %16
w: * der in|der _|Not mich|nicht ver- liesz.|_ _ _ Sein _|Trost ist süsz,|mich|nicht ver- liesz.|
 d2 c2 B2 AG | AG c2 c2 B2 | c2 e2 d2 f2 | e2 d2 z2 d2 | e2 f2 g3 f | ed c4 BA | G2 A2 D2 G2- | %23
w: _ _ _ Sein _|Trost _ _ ist _|süsz, giebt mir _|grosz Stärk, wi-|der Fleisch, Wel- *||* te, Teu- *|
 G2 F2 G2 B2 | A2 e4 f2 | d2 e2 c2 d2 | B4 c4 | d8 |] %28
w: * fels Werk, wi-|der Fleisch, Wel-|* * * te,|Teu- fels|Werk.|
V:3
 z8 | z8 | z8 | z8 | G8 | G6 F2 | G4 A4 | E4 F4 | G8 | z4 G4 | A4 B4 | c8 | z4 A4 | B4 c4 | d6 c2 | %15
w: ||||Mein|Zu- ver-|sicht hab|ich ge-|richt't|al-|lein in|Gott,|der|in der|Not mich|
 B2 G2 A4 | G8 | z4 G4 | A4 D4 | G6 F2 | E2 DC D4 | C8 | z4 G4 | A4 B4 | c4 A4 | B2 c2 A4 | G8- | %27
w: nie _ ver-|liesz.|Sein|trost ist|süsz, giebt|mir _ _ grosz|Stärk,|wi-|der Fleisch,|Wel- te,|Teu- * fels|Werk.|
 G8 |] %28
w: _|
V:4
 z8 | z8 | z8 | z8 | G,,4 C,4- | C,2 B,,2 A,,4 | G,,4 C,4- | C,2 B,,2 A,,4 | G,,4 C,4 | D,4 E,4 | %10
w: ||||Mein Zu-|* ver- sicht|hab ich|_ _ ge-|richt't al-|lein in|
 F,3 E, D,4 | C,8 | z8 | G,4 A,4 | D,6 F,2 | G,2 E,2 D,4 | G,,6 A,,B,, | C,2 A,,2 G,,4 | z8 | z8 | %20
w: Gott. _ _|_||Sein Trost|is _|_ _ süsz,|giebt mir _|grosz _ Stärk,|||
 z4 G,,4 | A,,6 B,,2 | C,2 A,,2 B,,2 C,2 | A,,4 G,,2 G,2 | F,2 E,2 A,2 F,2 | G,2 E,2 F,2 D,2 | %26
w: wi-|der Fleisch|Wel- te, Teu- *|fels Werk, wi-|der Fleisch, Wel- te,|Teu- * * fels|
 E,3 D, C,2 B,,A,, | G,,8 |] %28
w: Werk. _ _ _ _|_|

